svg/account_reactivate.svg

<svg xmlns="http://www.w3.org/2000/svg" viewBox="0 0 24 24"><path d="M21.5 9h-5l1.86-1.86A7.99 7.99 0 0 0 12 4c-4.42 0-8 3.58-8 8 0 1.83.61 3.5 1.64 4.85 1.22-1.4 3.51-2.35 6.36-2.35s5.15.95 6.36 2.35A7.95 7.95 0 0 0 20 12h2c0 5.5-4.5 10-10 10S2 17.5 2 12 6.5 2 12 2c3.14 0 5.95 1.45 7.78 3.72L21.5 4zM12 7c1.66 0 3 1.34 3 3s-1.34 3-3 3-3-1.34-3-3 1.34-3 3-3"/></svg>

<?xml version="1.0" encoding="UTF-8"?><!DOCTYPE svg PUBLIC "-//W3C//DTD SVG 1.1//EN" "http://www.w3.org/Graphics/SVG/1.1/DTD/svg11.dtd"><svg xmlns="http://www.w3.org/2000/svg" xmlns:xlink="http://www.w3.org/1999/xlink" version="1.1" id="mdi-account-reactivate" width="24" height="24" viewBox="0 0 24 24"><path d="M21.5 9H16.5L18.36 7.14C16.9 5.23 14.59 4 12 4C7.58 4 4 7.58 4 12C4 13.83 4.61 15.5 5.64 16.85C6.86 15.45 9.15 14.5 12 14.5C14.85 14.5 17.15 15.45 18.36 16.85C19.39 15.5 20 13.83 20 12H22C22 17.5 17.5 22 12 22C6.5 22 2 17.5 2 12C2 6.5 6.5 2 12 2C15.14 2 17.95 3.45 19.78 5.72L21.5 4V9M12 7C13.66 7 15 8.34 15 10C15 11.66 13.66 13 12 13C10.34 13 9 11.66 9 10C9 8.34 10.34 7 12 7Z" /></svg>
